!!!COM: Béla Bartók
!!!OTL: [T329_Bar-w17p11s3-4]
**kern	**kern	**dynam
*grp:A	*grp:B	*grp:B
*part1	*part1	*part1
*staff2	*staff1	*staff1/2
*I"Piano	*I"Piano	*I"Piano
*I'Pno.	*	*
*clefF4	*clefG2	*
*k[]	*k[]	*
*	*	*
*M3/4	*M3/4	*
=1	=1	=1
*^	*^	*
!	!	!LO:TX:t=[half-dot]=92	!	!LO:DY:ed=brack
4B-X'	[2.D-X	]2.g	]2.g	p
4E'	.	.	.	.
4B-'	.	.	.	.
*	*	*v	*v	*
.	.	(>16qqee/LL	.
.	.	16qqff/	.
.	.	16qqgg/JJ	.
=2	=2	=2	=2
4E'	2.D-]	[2.aa	sf
4B-X'	.	.	.
4E'	.	.	.
=3	=3	=3	=3
4B-X'	[2.D-X	4aa])	.
4E'	.	(4dd-X'	.
4B-'	.	4cc-X'	.
=4	=4	=4	=4
4E'	2.D-]	4a'	.
4B-X'	.	4g'	.
4E'	.	4f'	.
=5	=5	=5	=5
4D-X'	[2.GG	2e-X~	.
4B-X'	.	.	.
4En'	.	4f'	.
=6	=6	=6	=6
4B-X'	2.GG_	[2.c	.
4D-X'	.	.	.
4B-'	.	.	.
=7	=7	=7	=7
!	!	!LO:TX:a:t=rit.	!
4E'	2.GG_	8%3c])	.
4B-X'	.	.	.
.	.	8%3Bn~	<
4D-X'	.	.	.
=8	=8	=8	=8
4B-X'	2.GG]	8%3c~	.
4E'	.	.	.
.	.	8%3d~	[
4B-'	.	.	.
*v	*v	*	*
=9	=9	=9
!	!LO:TX:t=[half-dot]=122	!
!	!LO:TX:a:B:t=Tempo I.	!
4%3r	4e-X'^^	.
.	4c-X'	.
.	4G'	.
=10	=10	=10
4%3r	4%3r	.
.	(>16qqb/LL	.
.	16qqcc/	.
.	16qqdd/JJ	.
*clefG2	*	*
=11	=11	=11
4G: 4B-X: 4d-X: 4en:	4ee-X')	sf
4r	4cc-X'	.
4r	4g'	.
=12	=12	=12
4%3r	4%3r	.
.	(>16qqeee/LL	.
.	16qqfff/	.
.	16qqfff#X/JJ	.
=13	=13	=13
4%3r	4ggg')	ff
.	4eee-X'	.
.	4bb'	.
=14	=14	=14
4ccc'	4%3r	.
4aa-X'	.	.
4een'	.	.
=15	=15	=15
4%3r	4gg'	.
.	4ee-X'	.
.	4b'	.
=16	=16	=16
4cc'	4%3r	.
4a-X'	.	.
4en'	.	.
=17	=17	=17
4%3r	4g'	.
.	4e-X'	.
.	4B'	.
=	=	=
*-	*-	*-
!!!system-decoration: [({(s1,s2)})]
!!!RDF**kern: > = above
!!!RDF**kern: < = below
!!!EED: Rafael Laurindo
!!!EEV: 2021/07/12
!!!EED2: Gabriella Vici
!!!EEV2: 2022/02/08
